!!!COM: Franz Schubert
!!!CNT: Deutsch
!!!TXO: Deutsch
!!!OTL: "Am Grabe Anselmos"
!!!LYR: Matthias Claudius
!!!OPS: Op. 6
!!!ONM: No. 3
!!!ENC: Ben Fuhrman
!!!YOR: Schubert Lieder - Dietrich Fischer-Dieskau, and Elmar Budde, eds.
!!!YOR: New York: C. F. Peters, Vol. 2
!!!ODT: 1816/
!!NB: Only vocal melody encoded.
!!NB: First instance of melodic material only encoded.
**kern
*clef G2
*k[b-e-a-d-g-c-]
*M3/4
!!created: 08/09/06 9:30
!!proofed and posted: 08/09/06 9:30
!!edit time: 20 minutes
=4
{4.b-
8e
8g-
8b-
=5
(4e
4.g-)
8f
=6
(8.f
16e)
4e}
{[4ee-
=7
4.ee-]
8ee-
8.ee-
16dd-
=8
(4dd
4cc-)}
{8ee-
8cc-
=9
4.a-
8a-
8b-
8b-
=10
8.dd-
16cc-
4b-
8dd-
8b-
=11
(2g-
16b-
16a-)
16g-
16a-
=12
4b-}
{2cc-
=13
(4cc-
4.ee-)
8dd-
=14
(4dd-
4cc-)
4ddn
=15
(8ee-
4gg-
8ee-)
8cc-
8a-
=16
(4g-
4.b-)
8dn
=17
4e}
4r
4r
!! rest to measure 19
=19
{8.dd-
16cc-
8b-
8cc-
8dd-
8ee-
=20
8.dd-
16cc-
4b-}
{8.gg-
16b-
=21
8b-
8b-
8b-
8b-
8.dd-
16cc-
=22
4b-}
{8b-
8b-
8b-
8b-
=23
4.ee-}
{8ee-
8.ff-
16ff-
=24
16ee-
16a-
8a-
8.a-
16a-
8cc-
8b-
=25
8a-}
{8a-
8ee-
8cc-
8a-
8ee-
=26
4.ff-
8dd-
8b-
8ee-
=27
4a-}
4r
4r
!! rest to measure 30
=30
{4.b-
8ee-
8g-
8b-
=31
(4e
4.g-)
8f
=32
8.f
16e
4e}
{[4ee-
=33
4.ee-]
8ee-
8.ee-
16dd-
=34
(4dd-
4cc-)}
{8ee-
8cc-
=35
4.a-
8a-
8b-
8b-
=36
8.dd-
16cc-
4b-
8d
8b-
=37
(2g-
16b-
16a-)
16g-
16a-
=38
4b-}
{2cc-
=39
(4cc-
4.ee-)
8dd-
=40
(4dd-
4cc-)
4ddn
=41
(8ee-
4gg-
8ee-)
8cc-
8a-
=42
(4g-
4.b-)
8dn
=43
4e}
4r
4r
==
*-
